X:1
T:2 Songs, Op.60
T:The Torch
T:To Yvonne 
T:2 Songs, Op. 60
T:Edward Elgar
T:1. The Torch
T:Paraphrased by Pietro d'Alba and Edward Elgar
T:Creative Commons copyright waiver (CC0 1.0 Universal)
T:Creative Commons copyright waiver (CC0 1.0 Universal)
T:Creative Commons copyright waiver (CC0 1.0 Universal)
T:Creative Commons copyright waiver (CC0 1.0 Universal)
C:Edward Elgar
Z:Pietro d'Alba and Edward Elgar - Pietro d'Alba (Peter Rabbit) is probably a pseudonym for Elgar.
Z:Creative Commons copyright waiver (CC0 1.0 Universal)
L:1/8
Q:1/4=120
M:4/4
K:F
V:1 treble nm="Voice"
V:1
"^Allegro con fuoco" z8 | %1
w: |
"^Note to transcriber/reviewer:\nThe system and page breaks have been intentionally adjusted.\nOnly he notes have been entered in the vocal part to help \ndetermine reasonable breaks. Please enter lyrics, accents, dynamics, etc.\n" F A/ c/ c2- c !tenuto!d B/ A/ G- | %2
w: Come, O my love! _ Come, fly to me;|
 G G/ B/ B2- B c A/ G/ F | _E G/ B/ B2- B c d/ c/ B | %4
w: _ _ _ _ _ _ _ _ _||
 !tenuto!A G/ F/ G/ F/ E F/ !fermata!E D/ C2 || G G/ A/ B3/2 G/ F F/ G/ (3A G F | E4 z2 z D | %7
w: |||
 G G/ A/ (3(!fermata!cB) G F F/ G/ (3!>!A G3/2 F/ | E4 z4 | z8 | (F A/ c/) c2- c (d B/ A/) G- | %11
w: ||||
 G (G/ B/ B2- B) (c A/ G/ F) | _E G/ B/ B2- B c !fermata!_d/ c/ B | %13
w: ||
 _A G/ F/ G/ F/ _E F/ E D/ !fermata!C2 || G G/ A/ B G F F/ G/ A/ G F/ | E4 z2 z D | %16
w: |||
 G G/ A/ (3!fermata!c B G F/ F G/ !>!A/ G F/ | E4 z4 | z8 | F A/ c/ c2- c d B/ A/ G- | %20
w: ||||
 G G/ B/ B2- B c A/ G/ F | _E G/ B/ B2- B c _d/ c/ B | %22
w: ||
 _A G/ F/ !fermata!c/ B/ A{_d} G/{!fermata!d} !fermata!F{c} E/{!fermata!f} !fermata!F2 | %23
w: |
 !fermata!z8 |] %24
w: |

